16x16/actions/address-book-new.svg

<svg xmlns="http://www.w3.org/2000/svg" viewBox="0 0 16 16"><path style="fill:currentColor;fill-opacity:1;stroke:none;color:#5d656b" d="M3 2v2H2v2h1v4H2v2h1v2h11V2H3zm1 1h1v10H4V3zm2 0h7v10H6V3z"/></svg>

<svg xmlns="http://www.w3.org/2000/svg" viewBox="0 0 16 16">
  <defs id="defs3051">
    <style type="text/css" id="current-color-scheme">
      .ColorScheme-Text {
        color:#5d656b;
      }
      </style>
  </defs>
 <path style="fill:currentColor;fill-opacity:1;stroke:none" 
       d="M 3 2 L 3 3 L 3 4 L 2 4 L 2 6 L 3 6 L 3 10 L 2 10 L 2 12 L 3 12 L 3 13.5 L 3 14 L 14 14 L 14 13 L 14 3 L 14 2 L 3 2 z M 4 3 L 5 3 L 5 13 L 4 13 L 4 3 z M 6 3 L 13 3 L 13 13 L 6 13 L 6 3 z "
     class="ColorScheme-Text"
     />
</svg>
